X: 3
T: The Kitchen Girl
R: reel
M: 4/4
L: 1/8
K: Amix
"A"a4"G"g4|"A"efed c2 cd|e2 ef gaba|"E"g2 e2 e4|
"A"a4"G"g4|"A"efed cdef|g2d2 efed|"E"c2A2"A"A4:|
"Am"AB=cA BAGB|ABAG EDEG|A2B2=c2d2|"E"e3f e4|
"Am"AB=cA BAGB|ABAG EGAB|=c2A2 "G"BAG2|"Am"A3B A4:|

%%newpage
%% header "Will+Christian - Anthony Frawley's/Flannel Dreams		$P"

